!!!COM: Music21
!!!OTL: Marcha Procesional
!!!OMV: pezas_marchas_marcha-procesional-5_marcha-procesional-partitura.musicxml
**kern
*I"Bagpipes
*I'Bag
*clefG^2
*k[]
*M3/4
=1
!LO:TX:a:t=Andante
*MM96
!LO:TX:a:t=[quarter]=96
8cccL
8bbJ
8aaL
8ggJ
8ffL
8aaJ
=
8ggL
8aaJ
8ggL
8eeJ
4cc
=
8ddL
8eeJ
8ffL
8ddJ
8bL
8ddJ
=
8ccL
8ddJ
8eeL
8ffJ
4gg
=
8cccL
8bbJ
8aaL
8ggJ
8ffL
8aaJ
=
8ggL
8aaJ
8ggL
8eeJ
4cc
=
8ddL
8eeJ
8ffL
8ddJ
8bL
8ddJ
=
4cc
4cc
4r
!!linebreak:original
=||
*M3/4
!LO:TX:a:t=Andante
*MM96
!LO:TX:a:t=[quarter]=96
8cccL
8bbJ
8aaL
8ggJ
8ffL
8aaJ
=
8ggL
8aaJ
8ggL
8eeJ
4cc
=
8ddL
8eeJ
8ffL
8ddJ
8bL
8ddJ
=
8ccL
8ddJ
8eeL
8ffJ
4gg
=
8cccL
8bbJ
8aaL
8ggJ
8ffL
8aaJ
=
8ggL
8aaJ
8ggL
8eeJ
4cc
=
8ddL
8eeJ
8ffL
8ddJ
8bL
8ddJ
=
4cc
4cc
4r
!!linebreak:original
=||
8ddL
8bJ
8ddL
8bJ
8ddL
8ffJ
=
8eeL
8ccJ
8eeL
8ccJ
8eeL
8ggJ
=
8ffL
8ddJ
8ffL
8ddJ
8ffL
8ggJ
=
8cccL
8ggJ
8ggL
8eeJ
4cc
=
8ddL
8bJ
8ddL
8bJ
8ddL
8ffJ
=
8eeL
8ccJ
8eeL
8ccJ
8eeL
8ggJ
=
8ffL
8ddJ
8ffL
8ddJ
8bL
8ddJ
=
4cc
4cc
4r
!!linebreak:original
=||
8ddL
8bJ
8ddL
8bJ
8ddL
8ffJ
=
8eeL
8ccJ
8eeL
8ccJ
8eeL
8ggJ
=
8ffL
8ddJ
8ffL
8ddJ
8ffL
8ggJ
=
8cccL
8ggJ
8ggL
8eeJ
4cc
=
8ddL
8bJ
8ddL
8bJ
8ddL
8ffJ
=
8eeL
8ccJ
8eeL
8ccJ
8eeL
8ggJ
=
8ffL
8ddJ
8ffL
8ddJ
8bL
8ddJ
=
4cc
4cc
4r
=||
*-
